images/multiple-users.svg

<svg height="64" viewBox="0 0 64 64" width="64" xmlns="http://www.w3.org/2000/svg"><path d="m26 4c-2.199219 0-5.351562.691406-7.3125 2.007812-3.71875.132813-6.265625 2.753907-6.6875 6.894532-.25 2.558594-.019531 4.386718.140625 5.597656.050781.421875.109375.898438.089844 1.039062l-.089844.570313c-.160156 0-.308594.03125-.429687.0625-.898438.238281-1.539063 1.039063-1.789063 2.257813-.203125.980468-.132813 2.167968.175781 3.351562.542969 1.988281 1.664063 3.488281 2.890625 3.949219.632813 1.941406 1.5625 3.859375 2.722657 5.597656l-9.21875 5.34375c-4 2.308594-6.492188 6.617187-6.492188 11.25v7.078125c0 1.648438 1.351562 3 3 3h46c1.648438 0 3-1.351562 3-3v-3h9c1.652344 0 3-1.347656 3-3v-3.5625c0-3.746094-1.878906-7.199219-5.027344-9.234375l-5.910156-3.804687c2.492188-.632813 5.175781-1.597657 6.996094-2.402344.53125-.238282.933594-.695313 1.097656-1.257813.167969-.5625.078125-1.167969-.246094-1.660156l-1.710937-2.625c-.90625-1.382813-1.550781-2.90625-1.921875-4.519531l-1.699219-7.410156c-1.28125-5.589844-6.121094-9.679688-11.828125-10.039063-.792969-.511719-1.699219-.78125-2.632812-.78125-1.296876 0-3.40625.007813-5.390626.820313-2.386718-1.636719-5.34375-2.523438-8.726562-2.523438zm0 2h1c6.070312 0 10.449219 3.101562 12.25 8.578125-.691406-.078125-1.402344.011719-1.902344.484375-.378906.367188-.738281 1.058594-.277344 2.296875.609376 1.679687.832032 2.671875.898438 4.070313.023438.359374.222656.679687.542969.851562.316406.15625.699219.140625 1-.0625.167969-.097656.246093-.109375.269531-.121094.058594.03125.238281.242188.339844.730469.128906.671875.078125 1.5625-.152344 2.433594-.25.917969-.609375 1.578125-.949219 2-.328125.417969-.640625.617187-.789062.617187-.441407 0-.832031.289063-.960938.71875-.589843 1.980469-1.507812 3.980469-2.699219 5.730469-.371093.5625-.769531 1.101563-1.210937 1.609375-2.019531 2.410156-4.578125 4.0625-7.359375 4.0625s-5.339844-1.652344-7.359375-4.0625c-.441406-.507812-.839844-1.046875-1.210937-1.609375-1.191407-1.75-2.109376-3.75-2.699219-5.730469-.128907-.429687-.519531-.71875-.960938-.71875-.300781 0-1.238281-.777344-1.738281-2.617187-.230469-.871094-.28125-1.761719-.152344-2.433594.113282-.507813.292969-.707031.339844-.730469 0 0 .082031.011719.269531.121094.300781.203125.683594.21875 1 .0625.320313-.171875.519531-.492188.542969-.851562.019531-.519532.078125-1.039063.167969-1.539063.078125-.429687.011719-.910156-.078125-1.640625-.140625-1.121094-.359375-2.820312-.121094-5.152344.308594-3.1875 2.191406-5.097656 5.019531-5.097656.210938 0 .417969-.070312.601563-.199219 1.367187-1.03125 4.109375-1.800781 6.378906-1.800781zm15.117188 1.703125c.605468 0 1.195312.195313 1.699218.570313.160156.117187.355469.1875.558594.195312 4.933594.195312 9.152344 3.691406 10.253906 8.5l1.699219 7.410156c.421875 1.847656 1.160156 3.585938 2.199219 5.167969l1.71875 2.621094c-2.292969 1.011719-5.894532 2.226562-8.566406 2.695312l-2.070313-1.335937c1.0625-1.246094 1.625-2.542969 2.152344-3.964844.097656-.269531.316406-.535156.6875-.835938.789062-.640624 1.347656-1.828124 1.457031-3.101562.132812-1.558594-.199219-2.707031-.980469-3.421875-.234375-.214844-.28125-.34375-.285156-.398437l-.03125-.238282c-.109375-.953125-.222656-1.855468-.402344-2.414062-.132812-.414063-.527343-.695313-.960937-.695313h-1.902344c-1.445312-.015625-2.925781-.160156-4.390625-.425781-.539063-.105469-1.0625.257812-1.160156.800781-.101563.546875.257812 1.066407.800781 1.164063 1.578125.289062 3.167969.441406 4.738281.460937h1.117188c.074219.457031.132812.992188.175781 1.339844l.027344.246094c.070312.597656.375 1.132812.925781 1.640625.285156.257812.40625.902344.332031 1.769531-.070312.835937-.421875 1.480469-.722656 1.722656-.414062.335938-1.003906.878907-1.300781 1.691407-.898438 2.433593-1.773438 4.175781-5.589844 6.164062-.492187.253906-.683594.859375-.425781 1.347656.175781.34375.527344.539063.886718.539063.15625 0 .3125-.035157.460938-.113281 1.1875-.617188 2.132812-1.234376 2.90625-1.851563l10.765625 6.933594c2.574219 1.664062 4.109375 4.488281 4.109375 7.550781v3.5625c0 .550781-.449219 1-1 1h-9v-2.078125c0-4.632813-2.488281-8.941406-6.488281-11.25l-9.222657-5.34375c1.160157-1.738281 2.089844-3.65625 2.722657-5.597656 1.226562-.460938 2.347656-1.960938 2.890625-3.949219.308594-1.183594.378906-2.371094.175781-3.351562-.25-1.21875-.890625-2.019532-1.789063-2.257813-.121093-.03125-.257812-.0625-.429687-.0625-.140625-1.070313-.410156-2.070313-.921875-3.4375-.007812-.042969-.015625-.082031-.027344-.109375.351563.027344.910156.167969 1.378906.359375.339844.136719.742188.085937 1.023438-.152344.289062-.238281.417969-.621093.339844-.980469-.699219-3.179687-2.117188-5.804687-4.105469-7.765624 1.304687-.320313 2.617187-.320313 3.570313-.320313zm-20.589844 4.421875c-.714844-.0625-1.433594.265625-1.84375.890625l-1.605469 2.433594c-.304687.460937-.175781 1.082031.285156 1.386719.167969.109374.359375.164062.546875.164062.328125 0 .644532-.15625.839844-.449219l1.601562-2.433593 1.5625.761718c2.847657 1.390625 6.027344 2.121094 9.199219 2.121094h2.554688c.550781 0 1-.445312 1-1s-.449219-1-1-1h-2.554688c-2.867187 0-5.746093-.664062-8.320312-1.921875l-1.566407-.761719c-.226562-.109375-.460937-.171875-.699218-.191406zm-3.617188 24.8125c2.421875 2.972656 5.589844 5.0625 9.089844 5.0625s6.667969-2.089844 9.089844-5.0625l9.421875 5.464844c3.386719 1.957031 5.488281 5.609375 5.488281 9.519531v7.078125c0 .550781-.449219 1-1 1h-46c-.550781 0-1-.449219-1-1v-7.078125c0-3.910156 2.101562-7.5625 5.492188-9.519531zm1.152344 5.0625c-.390625-.023438-.773438.183594-.957031.550781-.246094.496094-.046875 1.097657.445312 1.34375l8 4c.144531.070313.296875.105469.449219.105469s.308594-.035156.449219-.105469l8-4c.492187-.246093.691406-.847656.445312-1.34375-.246093-.492187-.847656-.691406-1.34375-.445312l-7.550781 3.777343-7.550781-3.777343c-.125-.0625-.257813-.09375-.386719-.105469zm35.9375 6c-.550781 0-1 .445312-1 1v2c0 .554688.449219 1 1 1s1-.445312 1-1v-2c0-.554688-.449219-1-1-1zm5 0c-.550781 0-1 .445312-1 1v2c0 .554688.449219 1 1 1s1-.445312 1-1v-2c0-.554688-.449219-1-1-1zm-53 6c-.550781 0-1 .445312-1 1v2c0 .554688.449219 1 1 1s1-.445312 1-1v-2c0-.554688-.449219-1-1-1zm5 0c-.550781 0-1 .445312-1 1v2c0 .554688.449219 1 1 1s1-.445312 1-1v-2c0-.554688-.449219-1-1-1zm5 0c-.550781 0-1 .445312-1 1v2c0 .554688.449219 1 1 1s1-.445312 1-1v-2c0-.554688-.449219-1-1-1zm5 0c-.550781 0-1 .445312-1 1v2c0 .554688.449219 1 1 1s1-.445312 1-1v-2c0-.554688-.449219-1-1-1zm5 0c-.550781 0-1 .445312-1 1v2c0 .554688.449219 1 1 1s1-.445312 1-1v-2c0-.554688-.449219-1-1-1zm5 0c-.550781 0-1 .445312-1 1v2c0 .554688.449219 1 1 1s1-.445312 1-1v-2c0-.554688-.449219-1-1-1zm5 0c-.550781 0-1 .445312-1 1v2c0 .554688.449219 1 1 1s1-.445312 1-1v-2c0-.554688-.449219-1-1-1zm5 0c-.550781 0-1 .445312-1 1v2c0 .554688.449219 1 1 1s1-.445312 1-1v-2c0-.554688-.449219-1-1-1zm5 0c-.550781 0-1 .445312-1 1v2c0 .554688.449219 1 1 1s1-.445312 1-1v-2c0-.554688-.449219-1-1-1zm0 0" fill="#003e6b"/></svg>

<?xml version="1.0" encoding="UTF-8"?>
<svg xmlns="http://www.w3.org/2000/svg" viewBox="0 0 64 64" width="64px" height="64px">
<g id="surface12901896">
<path style=" stroke:none;fill-rule:nonzero;fill:rgb(0%,24.313726%,41.960785%);fill-opacity:1;" d="M 26 4 C 23.800781 4 20.648438 4.691406 18.6875 6.007812 C 14.96875 6.140625 12.421875 8.761719 12 12.902344 C 11.75 15.460938 11.980469 17.289062 12.140625 18.5 C 12.191406 18.921875 12.25 19.398438 12.230469 19.539062 L 12.140625 20.109375 C 11.980469 20.109375 11.832031 20.140625 11.710938 20.171875 C 10.8125 20.410156 10.171875 21.210938 9.921875 22.429688 C 9.71875 23.410156 9.789062 24.597656 10.097656 25.78125 C 10.640625 27.769531 11.761719 29.269531 12.988281 29.730469 C 13.621094 31.671875 14.550781 33.589844 15.710938 35.328125 L 6.492188 40.671875 C 2.492188 42.980469 0 47.289062 0 51.921875 L 0 59 C 0 60.648438 1.351562 62 3 62 L 49 62 C 50.648438 62 52 60.648438 52 59 L 52 56 L 61 56 C 62.652344 56 64 54.652344 64 53 L 64 49.4375 C 64 45.691406 62.121094 42.238281 58.972656 40.203125 L 53.0625 36.398438 C 55.554688 35.765625 58.238281 34.800781 60.058594 33.996094 C 60.589844 33.757812 60.992188 33.300781 61.15625 32.738281 C 61.324219 32.175781 61.234375 31.570312 60.910156 31.078125 L 59.199219 28.453125 C 58.292969 27.070312 57.648438 25.546875 57.277344 23.933594 L 55.578125 16.523438 C 54.296875 10.933594 49.457031 6.84375 43.75 6.484375 C 42.957031 5.972656 42.050781 5.703125 41.117188 5.703125 C 39.820312 5.703125 37.710938 5.710938 35.726562 6.523438 C 33.339844 4.886719 30.382812 4 27 4 Z M 26 6 L 27 6 C 33.070312 6 37.449219 9.101562 39.25 14.578125 C 38.558594 14.5 37.847656 14.589844 37.347656 15.0625 C 36.96875 15.429688 36.609375 16.121094 37.070312 17.359375 C 37.679688 19.039062 37.902344 20.03125 37.96875 21.429688 C 37.992188 21.789062 38.191406 22.109375 38.511719 22.28125 C 38.828125 22.4375 39.210938 22.421875 39.511719 22.21875 C 39.679688 22.121094 39.757812 22.109375 39.78125 22.097656 C 39.839844 22.128906 40.019531 22.339844 40.121094 22.828125 C 40.25 23.5 40.199219 24.390625 39.96875 25.261719 C 39.71875 26.179688 39.359375 26.839844 39.019531 27.261719 C 38.691406 27.679688 38.378906 27.878906 38.230469 27.878906 C 37.789062 27.878906 37.398438 28.167969 37.269531 28.597656 C 36.679688 30.578125 35.761719 32.578125 34.570312 34.328125 C 34.199219 34.890625 33.800781 35.429688 33.359375 35.9375 C 31.339844 38.347656 28.78125 40 26 40 C 23.21875 40 20.660156 38.347656 18.640625 35.9375 C 18.199219 35.429688 17.800781 34.890625 17.429688 34.328125 C 16.238281 32.578125 15.320312 30.578125 14.730469 28.597656 C 14.601562 28.167969 14.210938 27.878906 13.769531 27.878906 C 13.46875 27.878906 12.53125 27.101562 12.03125 25.261719 C 11.800781 24.390625 11.75 23.5 11.878906 22.828125 C 11.992188 22.320312 12.171875 22.121094 12.21875 22.097656 C 12.21875 22.097656 12.300781 22.109375 12.488281 22.21875 C 12.789062 22.421875 13.171875 22.4375 13.488281 22.28125 C 13.808594 22.109375 14.007812 21.789062 14.03125 21.429688 C 14.050781 20.910156 14.109375 20.390625 14.199219 19.890625 C 14.277344 19.460938 14.210938 18.980469 14.121094 18.25 C 13.980469 17.128906 13.761719 15.429688 14 13.097656 C 14.308594 9.910156 16.191406 8 19.019531 8 C 19.230469 8 19.4375 7.929688 19.621094 7.800781 C 20.988281 6.769531 23.730469 6 26 6 Z M 41.117188 7.703125 C 41.722656 7.703125 42.3125 7.898438 42.816406 8.273438 C 42.976562 8.390625 43.171875 8.460938 43.375 8.46875 C 48.308594 8.664062 52.527344 12.160156 53.628906 16.96875 L 55.328125 24.378906 C 55.75 26.226562 56.488281 27.964844 57.527344 29.546875 L 59.246094 32.167969 C 56.953125 33.179688 53.351562 34.394531 50.679688 34.863281 L 48.609375 33.527344 C 49.671875 32.28125 50.234375 30.984375 50.761719 29.5625 C 50.859375 29.292969 51.078125 29.027344 51.449219 28.726562 C 52.238281 28.085938 52.796875 26.898438 52.90625 25.625 C 53.039062 24.066406 52.707031 22.917969 51.925781 22.203125 C 51.691406 21.988281 51.644531 21.859375 51.640625 21.804688 L 51.609375 21.566406 C 51.5 20.613281 51.386719 19.710938 51.207031 19.152344 C 51.074219 18.738281 50.679688 18.457031 50.246094 18.457031 L 48.34375 18.457031 C 46.898438 18.441406 45.417969 18.296875 43.953125 18.03125 C 43.414062 17.925781 42.890625 18.289062 42.792969 18.832031 C 42.691406 19.378906 43.050781 19.898438 43.59375 19.996094 C 45.171875 20.285156 46.761719 20.4375 48.332031 20.457031 L 49.449219 20.457031 C 49.523438 20.914062 49.582031 21.449219 49.625 21.796875 L 49.652344 22.042969 C 49.722656 22.640625 50.027344 23.175781 50.578125 23.683594 C 50.863281 23.941406 50.984375 24.585938 50.910156 25.453125 C 50.839844 26.289062 50.488281 26.933594 50.1875 27.175781 C 49.773438 27.511719 49.183594 28.054688 48.886719 28.867188 C 47.988281 31.300781 47.113281 33.042969 43.296875 35.03125 C 42.804688 35.285156 42.613281 35.890625 42.871094 36.378906 C 43.046875 36.722656 43.398438 36.917969 43.757812 36.917969 C 43.914062 36.917969 44.070312 36.882812 44.21875 36.804688 C 45.40625 36.1875 46.351562 35.570312 47.125 34.953125 L 57.890625 41.886719 C 60.464844 43.550781 62 46.375 62 49.4375 L 62 53 C 62 53.550781 61.550781 54 61 54 L 52 54 L 52 51.921875 C 52 47.289062 49.511719 42.980469 45.511719 40.671875 L 36.289062 35.328125 C 37.449219 33.589844 38.378906 31.671875 39.011719 29.730469 C 40.238281 29.269531 41.359375 27.769531 41.902344 25.78125 C 42.210938 24.597656 42.28125 23.410156 42.078125 22.429688 C 41.828125 21.210938 41.1875 20.410156 40.289062 20.171875 C 40.167969 20.140625 40.03125 20.109375 39.859375 20.109375 C 39.71875 19.039062 39.449219 18.039062 38.9375 16.671875 C 38.929688 16.628906 38.921875 16.589844 38.910156 16.5625 C 39.261719 16.589844 39.820312 16.730469 40.289062 16.921875 C 40.628906 17.058594 41.03125 17.007812 41.3125 16.769531 C 41.601562 16.53125 41.730469 16.148438 41.652344 15.789062 C 40.953125 12.609375 39.535156 9.984375 37.546875 8.023438 C 38.851562 7.703125 40.164062 7.703125 41.117188 7.703125 Z M 20.527344 12.125 C 19.8125 12.0625 19.09375 12.390625 18.683594 13.015625 L 17.078125 15.449219 C 16.773438 15.910156 16.902344 16.53125 17.363281 16.835938 C 17.53125 16.945312 17.722656 17 17.910156 17 C 18.238281 17 18.554688 16.84375 18.75 16.550781 L 20.351562 14.117188 L 21.914062 14.878906 C 24.761719 16.269531 27.941406 17 31.113281 17 L 33.667969 17 C 34.21875 17 34.667969 16.554688 34.667969 16 C 34.667969 15.445312 34.21875 15 33.667969 15 L 31.113281 15 C 28.246094 15 25.367188 14.335938 22.792969 13.078125 L 21.226562 12.316406 C 21 12.207031 20.765625 12.144531 20.527344 12.125 Z M 16.910156 36.9375 C 19.332031 39.910156 22.5 42 26 42 C 29.5 42 32.667969 39.910156 35.089844 36.9375 L 44.511719 42.402344 C 47.898438 44.359375 50 48.011719 50 51.921875 L 50 59 C 50 59.550781 49.550781 60 49 60 L 3 60 C 2.449219 60 2 59.550781 2 59 L 2 51.921875 C 2 48.011719 4.101562 44.359375 7.492188 42.402344 Z M 18.0625 42 C 17.671875 41.976562 17.289062 42.183594 17.105469 42.550781 C 16.859375 43.046875 17.058594 43.648438 17.550781 43.894531 L 25.550781 47.894531 C 25.695312 47.964844 25.847656 48 26 48 C 26.152344 48 26.308594 47.964844 26.449219 47.894531 L 34.449219 43.894531 C 34.941406 43.648438 35.140625 43.046875 34.894531 42.550781 C 34.648438 42.058594 34.046875 41.859375 33.550781 42.105469 L 26 45.882812 L 18.449219 42.105469 C 18.324219 42.042969 18.191406 42.011719 18.0625 42 Z M 54 48 C 53.449219 48 53 48.445312 53 49 L 53 51 C 53 51.554688 53.449219 52 54 52 C 54.550781 52 55 51.554688 55 51 L 55 49 C 55 48.445312 54.550781 48 54 48 Z M 59 48 C 58.449219 48 58 48.445312 58 49 L 58 51 C 58 51.554688 58.449219 52 59 52 C 59.550781 52 60 51.554688 60 51 L 60 49 C 60 48.445312 59.550781 48 59 48 Z M 6 54 C 5.449219 54 5 54.445312 5 55 L 5 57 C 5 57.554688 5.449219 58 6 58 C 6.550781 58 7 57.554688 7 57 L 7 55 C 7 54.445312 6.550781 54 6 54 Z M 11 54 C 10.449219 54 10 54.445312 10 55 L 10 57 C 10 57.554688 10.449219 58 11 58 C 11.550781 58 12 57.554688 12 57 L 12 55 C 12 54.445312 11.550781 54 11 54 Z M 16 54 C 15.449219 54 15 54.445312 15 55 L 15 57 C 15 57.554688 15.449219 58 16 58 C 16.550781 58 17 57.554688 17 57 L 17 55 C 17 54.445312 16.550781 54 16 54 Z M 21 54 C 20.449219 54 20 54.445312 20 55 L 20 57 C 20 57.554688 20.449219 58 21 58 C 21.550781 58 22 57.554688 22 57 L 22 55 C 22 54.445312 21.550781 54 21 54 Z M 26 54 C 25.449219 54 25 54.445312 25 55 L 25 57 C 25 57.554688 25.449219 58 26 58 C 26.550781 58 27 57.554688 27 57 L 27 55 C 27 54.445312 26.550781 54 26 54 Z M 31 54 C 30.449219 54 30 54.445312 30 55 L 30 57 C 30 57.554688 30.449219 58 31 58 C 31.550781 58 32 57.554688 32 57 L 32 55 C 32 54.445312 31.550781 54 31 54 Z M 36 54 C 35.449219 54 35 54.445312 35 55 L 35 57 C 35 57.554688 35.449219 58 36 58 C 36.550781 58 37 57.554688 37 57 L 37 55 C 37 54.445312 36.550781 54 36 54 Z M 41 54 C 40.449219 54 40 54.445312 40 55 L 40 57 C 40 57.554688 40.449219 58 41 58 C 41.550781 58 42 57.554688 42 57 L 42 55 C 42 54.445312 41.550781 54 41 54 Z M 46 54 C 45.449219 54 45 54.445312 45 55 L 45 57 C 45 57.554688 45.449219 58 46 58 C 46.550781 58 47 57.554688 47 57 L 47 55 C 47 54.445312 46.550781 54 46 54 Z M 46 54 "/>
</g>
</svg>
